X: 35
T:Elphien's Waltze. HS.35
M:3/4
L:1/4
Q:80
S:Henry Stables MS,Cumbria,late19thC
R:Waltz
O:Walthwaite,nr.Ambleside.
A:England
Z:vmp.Chris Partington
K:D
A|Adf|g2c|dfb|a2A/A/|Adf|g2f|edf|A2A/A/|!
Adf|g2c|dfb|a2a/a/|agf|^def|gBc|d2::!
a|a/a/ab|a/a/ac'|d'c'b|a2f/g/|a/a/ab|a/a/ac'|d'c'b|a2A/A/|!
Adf|g2c|dfb|a2a/a/|agf|^def|gBc|d2::!
d|d2c|c2B|B2A|F2B|A/A/Aa|acd|e2d|A2d|!
d2c|c2B|B2A|F2B|B/B/Bb|B/B/Bb|f/e/d/B/A/F/|D2::!
A|f2e|d2c|c2B|g2f|f2e|dBd|e2c|A2d|!
f2e|d2c|c2B|g2f|f2e|dBd|e3|d2::!
d/e/|f/f/f/f/f/f/|fed|dcB|A2F|e/e/e/e/e/e/|!
edc|BAG|F2A|d/d/d/d/d/d/|dBB|!
e/e/e/e/e/e/|ecc|a/a/a/a/a/a/|agf|edc|d3:||
